packages/icon/src/svg/menu-close.icon.svg

<svg width="24" height="24" viewBox="0 0 24 24" fill="none" xmlns="http://www.w3.org/2000/svg">
<path fill-rule="evenodd" clip-rule="evenodd" d="M18.176 4.99997H2.5C2.22386 4.99997 2 5.22382 2 5.49997V6.49997C2 6.77611 2.22386 6.99997 2.5 6.99997H16.088H18.176L17.2367 7.93855L17.2367 7.93854C17.0413 8.13373 17.0412 8.45031 17.2364 8.64565L17.2364 8.64566L17.9436 9.35329L17.9434 9.35341C18.1386 9.54874 18.4552 9.54886 18.6506 9.35366L18.6507 9.35354L21.6504 6.35352L21.6504 6.35347C21.8456 6.15823 21.8457 5.84168 21.6504 5.64641L18.6505 2.64557L18.6507 2.6454C18.4554 2.45011 18.1389 2.45006 17.9436 2.6453L17.9434 2.64547L17.2364 3.35329L17.2366 3.35341C17.0414 3.5487 17.0415 3.86518 17.2367 4.0604L17.2366 4.06052L18.176 4.99997ZM15.5 11C15.7761 11 16 11.2239 16 11.5V12.5C16 12.7761 15.7761 13 15.5 13H2.5C2.22386 13 2 12.7761 2 12.5V11.5C2 11.2239 2.22386 11 2.5 11H15.5ZM2.5 17H20.5C20.7761 17 21 17.2239 21 17.5V18.5C21 18.7761 20.7761 19 20.5 19H2.5C2.22386 19 2 18.7761 2 18.5V17.5C2 17.2239 2.22386 17 2.5 17Z" fill="white"/>
</svg>

<svg aria-label="menu close icon" viewBox="0 0 24 24"><path fill-rule="evenodd" clip-rule="evenodd" d="M18.176 5H2.5a.5.5 0 00-.5.5v1a.5.5 0 00.5.5h15.676l-.94.939a.5.5 0 000 .707l.708.707a.5.5 0 00.707 0l3-3a.5.5 0 000-.707l-3-3a.5.5 0 00-.707 0l-.708.707a.5.5 0 000 .707l.94.94zM15.5 11a.5.5 0 01.5.5v1a.5.5 0 01-.5.5h-13a.5.5 0 01-.5-.5v-1a.5.5 0 01.5-.5h13zm-13 6h18a.5.5 0 01.5.5v1a.5.5 0 01-.5.5h-18a.5.5 0 01-.5-.5v-1a.5.5 0 01.5-.5z"/></svg>
